X:1
T:Ballade
T:Op. 100, No. 15
T:Friedrich Burgmuller
T:Public Domain (PianoXML typeset)
T:Public Domain (PianoXML typeset)
C:Friedrich Burgmuller
Z:Public Domain (PianoXML typeset)
%%score { 1 | 2 }
L:1/8
Q:1/4=135
M:3/8
K:Eb
V:1 treble nm="Piano" snm="Pno."
V:2 bass 
V:1
!p!"^Allegro con brio""_misterioso" .[CEG].[CEG].[CEG] | .[CEG].[CEG].[CEG] |: %2
!<(! .[CEG].[CEG].[CEG] | .[CEG].[CEG].[CEG]!<)! | .[CEG].[CEG].[CEG] | .[CEG].[CEG].[CEG] | %6
 .[CEG].[CEG].[CEG] | .[CE^F].[CEF].[CEF] | .[CEG].[CEG].[CEG] | .[CE^F].[CEF].[CEF] :| %10
 !wedge![CEG]!wedge![CEG] z |!<(! !wedge![Gc]!wedge![Gc] z | !wedge![G=B]!wedge![GB] z | %13
 !wedge![Gf]!wedge![Gf] z | !wedge![Ge]!wedge![Ge]!<)! z |!f! .g.e.c | .G.E.C | z3 | z3 | %19
 !^![EG]2 z | !^!G,2 z | !^![DG]2 !fermata!z |:[K:C]!p!!<(! (!1!G3 | !3!c3 | !1!B3 | !5!g3)!<)! | %26
!p! (G3 |!<(! c3 | B3!<)! | a2 .g) | (!3!g3 | f2 e |!>(! !4!g2 !3!f | e2 d)!>)! | %34
"_poco rit." (!2!c3 | e2 d |"_animato" c).c.B | ._B.A._A :|!>(! (_A2 .G)!>)! |!>(! (_A2 .G)!>)! | %40
!<(! G.c.B | ._B.A.^G!<)! |!>(! (_A2 .G)!>)! |!>(! (_A2 .G)!>)! | (!3!_A3 |"_dim. e rit." !2!F3 | %46
 !1!D3 | !4!G3) ||[K:Eb]!p! .[CEG].[CEG].[CEG] | .[CEG].[CEG].[CEG] |:!<(! .[CEG].[CEG].[CEG] | %51
 .[CEG].[CEG].[CEG]!<)! | .[CEG].[CEG].[CEG] | .[CEG].[CEG].[CEG] | .[CEG].[CEG].[CEG] | %55
 .[CE^F].[CEF].[CEF] | .[CEG].[CEG].[CEG] | .[CE^F].[CEF].[CEF] :| .[CEG].[CEG] z | %59
!<(! .[Gc].[Gc] z | .[G=B].[GB] z | .[Gf].[Gf] z | .[Ge].[Ge]!<)! z |!f! .g.e.c | .G.E.C | z3 | %66
 z3 | !^!!3!!5![EG]2 z | !^!G,2 z | !^![DG]2 z |!ff! !>!!4!C/=B,/C/!1!G,/=A,/B,/ | %71
 !>!C/=B,/C/G,/=A,/B,/ |"_dim." !>!C/=B,/C/G,/=A,/B,/ | (!>!C/=B,/C/F/E/D/ | C) z z | %75
!p! .!2!!5![Gc].[Gc] z | .[gc'].[gc'] z |!8va(! .[g'c''].[g'c'']!8va)! z | [CE]3- | [CE]2 z |] %80
V:2
 z3 | z3 |: (!1!C,/!2!=B,,/!1!C,/!4!G,,/!3!=A,,/!2!B,,/ | !1!C,/=B,,/C,/G,,/=A,,/B,,/ | %4
 C,) z .!3!E, | .!1!G, z .!5!C, | !1!=A,3- | A,2 .C, | =A,3- | A,2 z :| !wedge!G,!wedge!G, z | %11
 !wedge![E,G,]!wedge![E,G,] z | !wedge![D,G,]!wedge![D,G,] z | !wedge![=B,,G,]!wedge![B,,G,] z | %14
 !wedge![C,G,]!wedge![C,G,] z | z3 | z3 | .G,.E,.C, |!ped! !^!G,,2!ped-up! z | %19
!ped! !^![G,C]2!ped-up! z |!ped! !^!G,,2!ped-up! z |!ped! !^![G,=B,]2!ped-up! !fermata!z |: %22
[K:C] z .[E,G,C].[E,G,C] | z .[E,G,C].[E,G,C] | z .[F,G,D].[F,G,D] | z .[F,G,D].[F,G,D] | %26
 z .[E,G,C].[E,G,C] | z .[E,G,C].[E,G,C] | z .[F,G,D].[F,G,D] | z .[F,G,D].[F,G,D] | %30
 z .[E,G,C].[E,G,C] | z .[A,_D].[A,D] | z .[D,F,A,].[D,F,A,] | z .[F,A,D].[F,A,D] | %34
 z .[G,CE].[G,CE] | z .[G,B,F].[G,B,F] | [CE] z z | z3 :| z .!5!!3!!1![B,DF].[B,DF] | %39
 z .[B,DF].[B,DF] | !4!!2![CE] z2 | z3 | z .[B,DF].[B,DF] | z .[B,DF].[B,DF] | (_A,3 | F,3 | D,3 | %47
 G,3) ||[K:Eb] C,2 z | z3 |: (C,/=B,,/C,/G,,/=A,,/B,,/ | C,/=B,,/C,/G,,/=A,,/B,,/ | .C,) z .E, | %53
 .G, z .C, | =A,3- | A,2 .C, | =A,3- | A,2 z :| .G,.G, z | .[E,G,].[E,G,] z | .[D,G,].[D,G,] z | %61
 .[=B,,G,].[B,,G,] z | .[C,G,].[C,G,] z | z3 | z3 | .G,.E,.C, |!ped! G,,2!ped-up! z | %67
!ped! !^![G,C]2!ped-up! z |!ped! !^!G,,2!ped-up! z |!ped! !^!!2!!1![G,=B,]2!ped-up! z | %70
 !>!C,/=B,,/C,/!4!G,,/=A,,/B,,/ | !>!C,/=B,,/C,/G,,/=A,,/B,,/ | !>!C,/=B,,/C,/G,,/=A,,/B,,/ | %73
 (!>!C,/=B,,/C,/F,/E,/D,/ | C,) z z | .!4!!2![CE].[CE] z |[K:treble] .[ce].[ce] z | %77
 .[c'e'].[c'e'] z |[K:bass]!ped! [C,G,]3- | [C,G,]2!ped-up! z |] %80

